X: 1
T:Fenwick o' Bywell
M:6/8
L:1/8
K:G
g|edcBAB|GBGB2g|edcBAG|AfAc2g|edcBAB|GBGB2G|c>de/2f/2gdB|AgAc2:|:e|GGBGG
g|GGdB2g|GGdBBg|AgAc2e|GGdBBg|GGdB2G|c>de/2f/2gdB|AgAc2:||
% Output from ABC2Win  Version 2.1 i on 3/12/2000
